!!!!SEGMENT: pl-kk--kk-i-360--001_anonim--rorate-coeli.krn
!!!cenid: 17xx:1957
!!!COM: Anonim
!!!COM-rismID: pe30004985
!!!CDT:
!!!CNT:
!!!OTL: Rorate coeli
!!!PDT:
!!!AGN: Sacred
!!!SMS-siglum: PL-Kk
!!!SMS-shelfmark: Kk.I.360
!!!SMS-shelfwork: 001 W
!!!SMS-variant:
!!!SMS-altvar:
!!!NIFC-rismSourceID: 1001143316
!!!NIFC-islandoraID: pl-kk:5970
!!!URL-pdf-islandora: https://repozytorium.nifc.pl/islandora/object/pl-kk%3A5970/datastream/PDF/view
!!!URL-scan: https://polish.musicsources.pl/pl/lokalizacje/galeria/rekopisy/5975 @EN{Scan on Polish Music Sources Website} @PL{Skany w portalu Dziedzictwo Muzyki Polskiej w otwartym dostępie}
!!!ONB-nifc: UWAGA: utwory w zbiorze: 1. Rorate coeli, 2. Quoniam rex noster, 3. Sanguine proprio, 4. Per merita Sancti Adalberti
!!!AIN: 2 alto 2 empty 2 tenor
!!!key:
**kern	**text	**kern	**text	**kern	**text	**kern	**text	**kern	**text	**kern	**text
*part6	*part6	*part5	*part5	*part4	*part4	*part3	*part3	*part2	*part2	*part1	*part1
*staff6	*staff6	*staff5	*staff5	*staff4	*staff4	*staff3	*staff3	*staff2	*staff2	*staff1	*staff1
*Iempty	*	*Iempty	*	*Itenor	*	*Itenor	*	*Ialto	*	*Ialto	*
*I"Baſso Rypieno.	*	*I"[Basso]	*	*I"[Tenore II]	*	*I"[Tenore I]	*	*I"[Alto II]	*	*I"[Alto I]	*
*I'B rip	*	*	*	*	*	*	*	*	*	*	*
*clefF4	*	*clefF4	*	*clefC4	*	*clefC4	*	*clefC3	*	*clefC3	*
*k[]	*	*k[]	*	*k[]	*	*k[]	*	*k[]	*	*k[]	*
*d:	*	*d:	*	*d:	*	*d:	*	*d:	*	*d:	*
*M2/1	*	*M2/1	*	*M2/1	*	*M2/1	*	*M2/1	*	*M2/1	*
*met(c|)	*	*met(c|)	*	*met(c|)	*	*met(c|)	*	*met(c|)	*	*met(c|)	*
=1-	=1-	=1-	=1-	=1-	=1-	=1-	=1-	=1-	=1-	=1-	=1-
*	*	*	*	*2\right	*	*	*	*	*	*	*
*	*	*	*	*	*	*lig	*	*	*	*	*
!	!	!	!	!LO:TX:a:t=Ad aequa s. 5 Mart&colon; Paligon	!	!LO:TX:a:t=Ad aeq 5 Voci Mar P	!	!LO:TX:a:t=Ad aequelis 5 Voc Mari Palig.	!	!LO:TX:a:t=Ad aequalus 5 voci Mart Paligon	!
!LO:TX:a:t=P:problem=kreska pseudotaktowa	!	!LO:TX:a:t=P:problem=kreska pseudotaktowa	!	!	!	!	!	!LO:TX:a:t=P:problem=kreska pseudotaktowa	!	!	!
00r	.	00r	.	2.c\	Ro-	1C	Ro-	1e	Ro-	1g	Ro-
!	!	!	!	!LO:TX:a:t=P:problem=kreska pseudotaktowa	!	!	!	!	!	!	!
.	.	.	.	4B\	.	.	.	.	.	.	.
!	!	!	!	!	!	!	!	!	!	!LO:TX:a:t=P:problem=kreska pseudotaktowa	!
.	.	.	.	4A\	.	1D	.	1.d	-ra-	0f	-ra-
*	*	*	*	*	*	*Xlig	*	*	*	*	*
.	.	.	.	4G\	.	.	.	.	.	.	.
!	!	!	!	!LO:TX:a:t=P:problem=kreska pseudotaktowa	!	!	!	!	!	!	!
.	.	.	.	2A/	-ra-	.	.	.	.	.	.
=2-	=2-	=2-	=2-	=2-	=2-	=2-	=2-	=2-	=2-	=2-	=2-
*	*	*	*	*	*	*lig	*	*	*	*	*
!	!	!	!	!LO:TX:a:t=P:problem=kreska pseudotaktowa	!	!	!	!	!	!	!
.	.	.	.	1A	-te	1D	-ra-	.	.	.	.
*	*	*	*	*	*	*	*	*2\right	*	*	*
!	!	!	!	!	!	!	!	!LO:TX:a:t=P:problem=kreska pseudotaktowa	!	!	!
.	.	.	.	.	.	.	.	2d\	-te	.	.
*	*	*	*	*	*	*	*	*	*	*2\right	*
.	.	.	.	2r	.	1A	.	2.c\	cae-	2e\	-te
*	*	*	*	*	*ij	*Xlig	*	*	*	*	*
!	!	!	!	!LO:TX:a:t=P:problem=kreska pseudotaktowa	!	!	!	!	!	!	!
.	.	.	.	2A/	Ro-	.	.	.	.	2f\	cae-
!	!	!	!	!	!	!	!	!LO:TX:a:t=P:problem=kreska pseudotaktowa	!	!	!
.	.	.	.	.	.	.	.	4d\	.	.	.
=3-	=3-	=3-	=3-	=3-	=3-	=3-	=3-	=3-	=3-	=3-	=3-
*lig	*	*lig	*	*	*	*	*	*	*	*	*
!	!	!	!	!	!	!	!	!	!	!LO:TX:a:t=P:problem=kreska pseudotaktowa	!
1C	Ro-	1C	Ro-	1G	ra-	1c	.	4e\	.	1g	-li
.	.	.	.	.	.	.	.	4f\	.	.	.
!	!	!	!	!	!	!	!	!LO:TX:a:t=P:problem=kreska pseudotaktowa	!	!	!
.	.	.	.	.	.	.	.	2e\	.	.	.
*.	*	*	*	*	*	*	*	*	*	*	*
!	!	!	!	!	!	!LO:TX:a:t=P:problem=kreska pseudotaktowa	!	!LO:TX:a:t=P:problem=kreska pseudotaktowa	!	!	!
1D	.	1D	.	2F/	-te	1A,<	-te	0d	-li	2re	.
*Xlig	*	*Xlig	*	*	*	*	*	*	*	*	*ij
!	!	!	!	!	!	!	!	!	!	!LO:TX:a:t=P:problem=kreska pseudotaktowa	!
.	.	.	.	4D/	cae-	.	.	.	.	2f\	ro-
!	!	!	!	!LO:TX:a:t=P:problem=kreska pseudotaktowa	!	!	!	!	!	!	!
.	.	.	.	4E/	.	.	.	.	.	.	.
=4-	=4-	=4-	=4-	=4-	=4-	=4-	=4-	=4-	=4-	=4-	=4-
*2\right	*	*	*	*	*	*	*	*	*	*	*
2D\	-ra-	2D/	-ra-	4F/	.	1A	cae-	.	.	2f\	-ra-
.	.	.	.	4G/	.	.	.	.	.	.	.
*	*	*2\right	*	*	*	*	*	*	*	*	*
!LO:TX:a:t=P:problem=kreska pseudotaktowa	!	!LO:TX:a:t=P:problem=kreska pseudotaktowa	!	!	!	!	!	!	!	!LO:TX:a:t=P:problem=kreska pseudotaktowa	!
2F\	-te	2F\	-te	1A	.	.	.	.	.	2d\	-te
*	*	*	*	*	*	*lig	*	*	*	*	*
!	!	!LO:TX:a:t=P:problem=kreska pseudotaktowa	!	!	!	!	!	!	!	!	!
1E	cae-	1E	cae-	.	.	1B	.	1rc	.	1e	cae-
!	!	!	!	!LO:TX:a:t=P:problem=kreska pseudotaktowa	!	!	!	!	!	!	!
.	.	.	.	2G#X/	.	.	.	.	.	.	.
=5-	=5-	=5-	=5-	=5-	=5-	=5-	=5-	=5-	=5-	=5-	=5-
!	!	!	!	!LO:TX:a:t=P:problem=kreska pseudotaktowa	!	!	!	!	!	!LO:TX:a:t=P:problem=kreska pseudotaktowa	!
2AA,</	-li	2AA,</	-li	1A	-li	1c	.	2rA	.	1e	-li
*	*	*	*ij	*	*Xij	*Xlig	*	*	*	*	*Xij
!	!	!	!	!	!	!	!	!LO:TX:a:t=P:problem=kreska pseudotaktowa	!	!	!
2.A\	Ro-	2.A\	Ro-	.	.	.	.	2e\	ro-	.	.
.	.	.	.	1rA	.	1A	.	2c/	-ra-	2r	.
4G\	.	4G\	.	.	.	.	.	.	.	.	.
!	!	!	!	!	!	!	!	!LO:TX:a:t=P:problem=kreska pseudotaktowa	!	!LO:TX:a:t=P:problem=kreska pseudotaktowa	!
(4F\	-ra-	4F\	-ra-	.	.	.	.	2c/	-te	2f\	ro-
!LO:TX:a:t=P:problem=kreska pseudotaktowa	!	!LO:TX:a:t=P:problem=kreska pseudotaktowa	!	!	!	!	!	!	!	!	!
4E\)	.	4E\	.	.	.	.	.	.	.	.	.
=6-	=6-	=6-	=6-	=6-	=6-	=6-	=6-	=6-	=6-	=6-	=6-
*	*	*	*	*	*	*lig	*	*	*	*	*
2D,<\	-te	2D/	-te	2rF	.	1A	li	2d\	cae-	2f\	-ra-
!	!	!	!	!LO:TX:a:t=P:problem=kreska pseudotaktowa	!	!	!	!LO:TX:a:t=P:problem=kreska pseudotaktowa	!	!LO:TX:a:t=P:problem=kreska pseudotaktowa	!
2F\	cae-	2F\	cae-	2F/	de-	.	.	2A/	.	2d\	-te
!LO:TX:a:t=P:problem=kreska pseudotaktowa	!	!LO:TX:a:t=P:problem=kreska pseudotaktowa	!	!	!	!LO:TX:a:t=P:problem=kreska pseudotaktowa	!	!	!	!	!
1E	-li	1E	-li	2Gny/	-su-	1G,<	.	1B	-li	1e	cae-
*	*	*	*Xij	*	*	*Xlig	*	*	*	*	*
*	*	*	*	*custos:g	*	*	*	*	*	*	*
!	!	!	!	!LO:TX:a:t=P:problem=kreska pseudotaktowa	!	!	!	!	!	!	!
.	.	.	.	2E/	-per	.	.	.	.	.	.
!	!	!	!	!LO:LB:g=original	!	!	!	!	!	!	!
=7-	=7-	=7-	=7-	=7-	=7-	=7-	=7-	=7-	=7-	=7-	=7-
*	*	*	*	*	*ij	*lig	*	*	*	*	*
2rC	.	2r	.	2.c\	de-	1A	de-	2.c/	de-	2e\	-li
!	!	!LO:TX:a:t=P:problem=kreska pseudotaktowa	!	!	!	!	!	!	!	!	!
2AA/	de-	2AA/	de-	.	.	.	.	.	.	1a	de-
!	!	!	!	!LO:TX:a:t=P:problem=kreska pseudotaktowa	!	!	!	!LO:TX:a:t=P:problem=kreska pseudotaktowa	!	!	!
.	.	.	.	4B\	.	.	.	4d\	-su-	.	.
!	!	!	!	!	!	!	!	!LO:LB:g=original	!	!	!
2.AA/	.	2.AA/	-su-	4A\	.	1c	.	0e	-per	.	.
*	*	*	*	*	*	*Xlig	*	*	*	*	*
.	.	.	.	4G\	.	.	.	.	.	.	.
!	!	!	!	!LO:TX:a:t=P:problem=kreska pseudotaktowa	!	!	!	!	!	!LO:TX:a:t=P:problem=kreska pseudotaktowa	!
.	.	.	.	2A/	.	.	.	.	.	2a\	-su-
!LO:TX:a:t=P:problem=kreska pseudotaktowa	!	!LO:TX:a:t=P:problem=kreska pseudotaktowa	!	!	!	!	!	!	!	!	!
4BB/	.	4BB/	.	.	.	.	.	.	.	.	.
!	!	!	!	!	!	!	!	!	!	!LO:LB:g=original	!
=8-	=8-	=8-	=8-	=8-	=8-	=8-	=8-	=8-	=8-	=8-	=8-
*	*	*	*	*	*	*lig	*	*	*	*	*
!	!	!	!	!	!	!	!	!	!	!LO:TX:a:t=P:problem=kreska pseudotaktowa	!
4C/	.	4C/	.	4E/	su-	1c	-su-	.	.	1g	-per
4D/	.	4D/	.	4F/	.	.	.	.	.	.	.
!	!	!LO:LB:g=original	!	!	!	!	!	!	!	!	!
4E/	.	4E\	.	4G/	.	.	.	.	.	.	.
!	!	!LO:TX:a:t=P:problem=kreska pseudotaktowa	!	!LO:TX:a:t=P:problem=kreska pseudotaktowa	!	!	!	!	!	!	!
4F/	.	4F\	.	4A/	.	.	.	.	.	.	.
*	*	*	*	*	*	*custos:g	*	*	*	*	*
!LO:LB:g=original	!	!	!	!	!	!	!	!	!	!	!
*	*	*	*	*	*	*	*	*	*ij	*	*
2G\	.	2G\	.	2B\	.	1B	.	2d\	de-	2re	.
*	*	*	*	*	*	*Xlig	*	*	*	*	*
!	!	!	!	!LO:TX:a:t=P:problem=kreska pseudotaktowa	!	!	!	!	!	!	!
2E\	.	2E\	.	2G/	.	.	.	2e\	-su-	1g	de-
!	!	!	!	!	!	!LO:LB:g=original	!	!	!	!	!
=9-	=9-	=9-	=9-	=9-	=9-	=9-	=9-	=9-	=9-	=9-	=9-
!	!	!	!	!	!	!	!	!LO:TX:a:t=P:problem=kreska pseudotaktowa	!	!	!
2.A\	.	1A	.	4A/	.	1c	.	1c	-per	.	.
*	*	*	*	*	*	*	*	*	*Xij	*	*
.	.	.	.	4B\	.	.	.	.	.	.	.
!	!	!	!	!	!	!	!	!	!	!LO:TX:a:t=P:problem=kreska pseudotaktowa	!
.	.	.	.	2.c\	.	.	.	.	.	2f#X\	-su-
4A\	su-	.	.	.	.	.	.	.	.	.	.
*	*	*	*	*	*	*lig	*	*	*	*	*
!LO:TX:a:t=P:problem=kreska pseudotaktowa	!	!LO:TX:a:t=P:problem=kreska pseudotaktowa	!	!	!	!	!	!	!	!LO:TX:a:t=P:problem=kreska pseudotaktowa	!
1G	-per	1G	-per	.	.	1d	.	2r	.	0g	-per
.	.	.	.	8B\L	.	.	.	.	.	.	.
.	.	.	.	8A\J	.	.	.	.	.	.	.
!	!	!	!	!LO:TX:a:t=P:problem=kreska pseudotaktowa	!	!	!	!LO:TX:a:t=P:problem=kreska pseudotaktowa	!	!	!
.	.	.	.	2B\	.	.	.	2d\	de-	.	.
=10-	=10-	=10-	=10-	=10-	=10-	=10-	=10-	=10-	=10-	=10-	=10-
2rC	.	2r	.	2c\	-per	1c	.	2e\	-su-	.	.
*	*ij	*	*	*	*	*Xlig	*	*	*	*	*
!	!	!LO:TX:a:t=P:problem=kreska pseudotaktowa	!	!	!	!	!	!	!	!	!
2C/	de-	2C/	de-	1G	de-	.	.	1c	.	.	.
1.G	-su-	0GG	-su-	.	.	1d	.	.	.	2re	.
!	!	!	!	!LO:TX:a:t=P:problem=kreska pseudotaktowa	!	!	!	!	!	!LO:TX:a:t=P:problem=kreska pseudotaktowa	!
.	.	.	.	2G/	-su-	.	.	4B/	.	2g\	et
!	!	!	!	!	!	!	!	!LO:TX:a:t=P:problem=kreska pseudotaktowa	!	!	!
.	.	.	.	.	.	.	.	4A/	.	.	.
=11-	=11-	=11-	=11-	=11-	=11-	=11-	=11-	=11-	=11-	=11-	=11-
*	*	*	*	*	*	*lig	*	*	*	*	*
!	!	!	!	!LO:TX:a:t=P:problem=kreska pseudotaktowa	!	!	!	!	!	!	!
.	.	.	.	0G	-per	1d	-per	1B	.	2g\	nu-
*	*	*	*	*	*Xij	*	*	*	*	*	*
!	!	!	!	!	!	!	!	!	!	!LO:TX:a:t=P:problem=kreska pseudotaktowa	!
2GG/	.	.	.	.	.	.	.	.	.	2g\	-bes
!LO:TX:a:t=P:problem=kreska pseudotaktowa	!	!LO:TX:a:t=P:problem=kreska pseudotaktowa	!	!	!	!LO:TX:a:t=P:problem=kreska pseudotaktowa	!	!LO:TX:a:t=P:problem=kreska pseudotaktowa	!	!	!
0C	-per	0C	-per	.	.	1c,<	.	1c	per	1.e	plu-
*	*Xij	*	*	*	*	*Xlig	*	*	*	*	*
=12-	=12-	=12-	=12-	=12-	=12-	=12-	=12-	=12-	=12-	=12-	=12-
!	!	!	!	!	!	!	!	!LO:TX:a:t=P:problem=kreska pseudotaktowa	!	!	!
.	.	.	.	2r	.	1G	et	1r	.	.	.
*	*	*	*	*custos:g	*	*	*	*	*	*	*
!	!	!	!	!LO:TX:a:t=P:problem=kreska pseudotaktowa	!	!	!	!	!	!	!
!	!	!	!	!	!	!	!	!	!	!LO:TX:a:t=P:problem=kreska pseudotaktowa	!
.	.	.	.	2c\	et	.	.	.	.	2fny\	.
*	*	*	*	*	*	*lig	*	*	*	*	*
1r	.	1rE	.	1.G	nu-	1B	nu-	1d	et	0g	-ant
=13-	=13-	=13-	=13-	=13-	=13-	=13-	=13-	=13-	=13-	=13-	=13-
!LO:TX:a:t=P:problem=kreska pseudotaktowa	!	!LO:TX:a:t=P:problem=kreska pseudotaktowa	!	!	!	!	!	!	!	!	!
1C	et	1C	et	.	.	1c	.	2e\	nu-	.	.
*	*	*	*	*	*	*Xlig	*	*	*	*	*
!	!	!	!	!LO:TX:a:t=P:problem=kreska pseudotaktowa	!	!	!	!LO:TX:a:t=P:problem=kreska pseudotaktowa	!	!	!
.	.	.	.	2G/	-bes	.	.	2e\	-bes	.	.
*lig	*	*lig	*	*	*	*	*	*	*	*	*ij
1D	nu-	1D	nu-	1d	plu-	1A	.	1.f	plu-	2re	.
!	!	!	!	!	!	!	!	!	!	!LO:TX:a:t=P:problem=kreska pseudotaktowa	!
.	.	.	.	.	.	.	.	.	.	2a\	et
=14-	=14-	=14-	=14-	=14-	=14-	=14-	=14-	=14-	=14-	=14-	=14-
!	!	!	!	!	!	!LO:TX:a:t=P:problem=kreska pseudotaktowa	!	!	!	!	!
1F	.	1F	.	2c\	-ant	1A,<	-bes	.	.	2a\	nu-
!	!	!	!	!LO:TX:a:t=P:problem=kreska pseudotaktowa	!	!	!	!LO:TX:a:t=P:problem=kreska pseudotaktowa	!	!	!
.	.	.	.	2d\	iu-	.	.	2d\	-ant	1a	-bes
*Xlig	*	*Xlig	*	*	*	*lig	*	*	*	*	*
!LO:TX:a:t=P:problem=kreska pseudotaktowa	!	!LO:TX:a:t=P:problem=kreska pseudotaktowa	!	!LO:TX:a:t=P:problem=kreska pseudotaktowa	!	!	!	!	!	!	!
1E	-bes	1E	-bes	1B	-ſtum	1B	plu-	0e	iuſ-	.	.
!	!	!	!	!	!	!	!	!	!	!LO:TX:a:t=P:problem=kreska pseudotaktowa	!
.	.	.	.	.	.	.	.	.	.	2g#X\	plu-
=15-	=15-	=15-	=15-	=15-	=15-	=15-	=15-	=15-	=15-	=15-	=15-
2rC	.	2r	.	2r	.	1c	.	.	.	2a,<\	-ant
*	*ij	*	*ij	*	*ij	*Xlig	*	*	*	*	*Xij
!LO:TX:a:t=P:problem=kreska pseudotaktowa	!	!LO:TX:a:t=P:problem=kreska pseudotaktowa	!	!	!	!	!	!	!	!LO:TX:a:t=P:problem=kreska pseudotaktowa	!
2C/	et	2C/	et	2G/	et	.	.	.	.	2e\	et
!	!	!	!	!	!	!	!	!LO:TX:a:t=P:problem=kreska pseudotaktowa	!	!LO:TX:a:t=P:problem=kreska pseudotaktowa	!
2.D\	nu-	2.D/	nu-	2.F/	nu-	1A	.	1d	-tum	1f	nu-
*	*	*	*	*	*	*	*	*	*	*custos:f	*
!	!	!LO:TX:a:t=P:problem=kreska pseudotaktowa	!	!LO:TX:a:t=P:problem=kreska pseudotaktowa	!	!	!	!	!	!	!
4C/	.	4C/	.	4E/	.	.	.	.	.	.	.
!	!	!	!	!	!	!	!	!	!	!LO:LB:g=original	!
=16-	=16-	=16-	=16-	=16-	=16-	=16-	=16-	=16-	=16-	=16-	=16-
!	!	!	!	!	!	!LO:TX:a:t=P:problem=kreska pseudotaktowa	!	!	!	!	!
4D\	.	4D/	.	4F/	.	1A,<	-ant	2r	.	2f\	-bes
4E\	.	4E\	.	4G/	.	.	.	.	.	.	.
*	*	*	*	*	*	*	*	*	*ij	*	*
!	!	!LO:TX:a:t=P:problem=kreska pseudotaktowa	!	!	!	!	!	!	!	!	!
2F\	.	2F\	-bes	4A/	.	.	.	1c	et	1f	plu-
*	*	*	*Xij	*	*	*	*	*	*	*	*
!	!	!LO:LB:g=original	!	!LO:TX:a:t=P:problem=kreska pseudotaktowa	!	!	!	!	!	!	!
.	.	.	.	4F/	.	.	.	.	.	.	.
*	*	*	*	*	*	*lig	*	*	*	*	*
2C/	.	2C/	plu-	2G/	-bes	1G	iu-	.	.	.	.
!	!	!LO:TX:a:t=P:problem=kreska pseudotaktowa	!	!LO:TX:a:t=P:problem=kreska pseudotaktowa	!	!	!	!LO:TX:a:t=P:problem=kreska pseudotaktowa	!	!LO:TX:a:t=P:problem=kreska pseudotaktowa	!
2C/	-bes	2C/	-ant	2G/	plu-	.	.	2c/	nu-	2e\	-ant
*	*Xij	*	*	*	*	*	*	*	*	*	*
!	!	!	!	!	!	!	!	!LO:LB:g=original	!	!	!
=17-	=17-	=17-	=17-	=17-	=17-	=17-	=17-	=17-	=17-	=17-	=17-
!	!	!LO:TX:a:t=P:problem=kreska pseudotaktowa	!	!LO:TX:a:t=P:problem=kreska pseudotaktowa	!	!	!	!	!	!	!
1F	.	1FF	.	1A	-ant	1F	.	2c/	-bes	1f	iuſ-
*	*	*	*	*	*Xij	*Xlig	*	*	*	*	*
!	!	!	!	!	!	!	!	!LO:TX:a:t=P:problem=kreska pseudotaktowa	!	!	!
.	.	.	.	.	.	.	.	2d\	plu-	.	.
!LO:LB:g=original	!	!	!	!	!	!	!	!	!	!LO:TX:a:t=P:problem=kreska pseudotaktowa	!
2r	.	2r	.	1r	.	1A	.	2e\	.	0c	-tum
!	!	!	!	!	!	!	!	!LO:TX:a:t=P:problem=kreska pseudotaktowa	!	!	!
1F	plu-	1F	plu-	.	.	.	.	2f\	.	.	.
=18-	=18-	=18-	=18-	=18-	=18-	=18-	=18-	=18-	=18-	=18-	=18-
*	*	*	*	*	*	*lig	*	*	*	*	*
.	.	.	.	2r	.	1G	.	2c/	-ant	.	.
!LO:TX:a:t=P:problem=kreska pseudotaktowa	!	!LO:TX:a:t=P:problem=kreska pseudotaktowa	!	!LO:TX:a:t=P:problem=kreska pseudotaktowa	!	!	!	!LO:TX:a:t=P:problem=kreska pseudotaktowa	!	!	!
2E\	-ant	2E\	-ant	2G/	et	.	.	2c/	iuſ-	.	.
*	*	*	*	*	*	*custos:g	*	*	*	*	*
!	!	!LO:TX:a:t=P:problem=kreska pseudotaktowa	!	!	!	!	!	!	!	!	!
1D	Iu-	1D	iu-	2A/	nu-	1F	.	2d\	.	2r	.
*	*	*	*	*	*	*Xlig	*	*	*	*	*
!	!	!	!	!LO:TX:a:t=P:problem=kreska pseudotaktowa	!	!	!	!	!	!	!
.	.	.	.	2F/	-bes	.	.	2B/	.	1f	iu-
!	!	!	!	!	!	!LO:LB:g=original	!	!	!	!	!
=19-	=19-	=19-	=19-	=19-	=19-	=19-	=19-	=19-	=19-	=19-	=19-
!LO:TX:a:t=P:problem=kreska pseudotaktowa	!	!LO:TX:a:t=P:problem=kreska pseudotaktowa	!	!	!	!	!	!LO:TX:a:t=P:problem=kreska pseudotaktowa	!	!	!
0C	-ſtu(m)	0C	-ſtum.	2c\	plu-	1G	.	1c	-tum	.	.
*	*	*	*	*	*	*	*	*	*Xij	*	*
*	*	*	*	*custos:c	*	*	*	*	*	*	*
!	!	!	!	!LO:TX:a:t=P:problem=kreska pseudotaktowa	!	!	!	!	!	!	!
.	.	.	.	2G/	-ant	.	.	.	.	4e\	.
!	!	!	!	!	!	!	!	!	!	!LO:TX:a:t=P:problem=kreska pseudotaktowa	!
.	.	.	.	.	.	.	.	.	.	4d\	.
!	!	!	!	!LO:LB:g=original	!	!	!	!	!	!	!
*	*	*	*	*	*	*lig	*	*	*	*	*
.	.	.	.	2.c\	iu-	1G	-stum	1r	.	1e	.
!	!	!	!	!LO:TX:a:t=P:problem=kreska pseudotaktowa	!	!	!	!	!	!	!
.	.	.	.	4B\	.	.	.	.	.	.	.
=20-	=20-	=20-	=20-	=20-	=20-	=20-	=20-	=20-	=20-	=20-	=20-
!	!	!	!	!	!	!LO:TX:a:t=P:problem=kreska pseudotaktowa	!	!LO:TX:a:t=P:problem=kreska pseudotaktowa	!	!LO:TX:a:t=P:problem=kreska pseudotaktowa	!
2r	.	2r	.	4A/	.	1F,<	.	1c	a-	1f	-stum
*	*	*	*	*	*	*Xlig	*	*	*	*	*
.	.	.	.	4G/	.	.	.	.	.	.	.
!	!	!LO:TX:a:t=P:problem=kreska pseudotaktowa	!	!LO:TX:a:t=P:problem=kreska pseudotaktowa	!	!	!	!	!	!	!
2F\	a-	2F\	a-	2A/	.	.	.	.	.	.	.
!	!	!	!	!	!	!	!	!LO:TX:a:t=P:problem=kreska pseudotaktowa	!	!	!
2D/	-pe-	2D/	-pe-	2F/	.	1F	a-	1d	-pe-	2re	.
!	!	!LO:TX:a:t=P:problem=kreska pseudotaktowa	!	!LO:TX:a:t=P:problem=kreska pseudotaktowa	!	!	!	!	!	!LO:TX:a:t=P:problem=kreska pseudotaktowa	!
2BB-X/	-ri-	2BB-X/	-ri-	2B-X\	.	.	.	.	.	2f\	a-
=21-	=21-	=21-	=21-	=21-	=21-	=21-	=21-	=21-	=21-	=21-	=21-
1D	-a-	1D	-a-	4A/	.	1F	-pe-	2d\	-ri-	2f\	-pe-
.	.	.	.	4G/	.	.	.	.	.	.	.
.	.	.	.	4A/	.	.	.	2d\	-a-	1f	-ri-
!	!	!	!	!LO:TX:a:t=P:problem=kreska pseudotaktowa	!	!	!	!	!	!	!
.	.	.	.	4Bny\	.	.	.	.	.	.	.
!LO:TX:a:t=P:problem=kreska pseudotaktowa	!	!LO:TX:a:t=P:problem=kreska pseudotaktowa	!	!LO:TX:a:t=P:problem=kreska pseudotaktowa	!	!	!	!LO:TX:a:t=P:problem=kreska pseudotaktowa	!	!	!
0C	-tur	0C	-tur	0c	stum	1G	-ri-	1G	-tur	.	.
.	.	.	.	.	.	.	.	.	.	4e\	.
!	!	!	!	!	!	!	!	!	!	!LO:TX:a:t=P:problem=kreska pseudotaktowa	!
.	.	.	.	.	.	.	.	.	.	4d\	.
=22-	=22-	=22-	=22-	=22-	=22-	=22-	=22-	=22-	=22-	=22-	=22-
.	.	.	.	.	.	1G	-a-	1r	.	2.e\	-a-
!	!	!	!	!	!	!	!	!	!	!LO:TX:a:t=P:problem=kreska pseudotaktowa	!
.	.	.	.	.	.	.	.	.	.	4d\	.
*	*	*	*	*	*	*lig	*	*	*ij	*	*
!	!	!LO:TX:a:t=P:problem=kreska pseudotaktowa	!	!	!	!	!	!	!	!	!
1r	.	1r	.	1r	.	1A	-tur	2.c/	a-	4e\	.
.	.	.	.	.	.	.	.	.	.	4f\	.
.	.	.	.	.	.	.	.	.	.	1gny\	.
!	!	!	!	!	!	!	!	!LO:TX:a:t=P:problem=kreska pseudotaktowa	!	!	!
.	.	.	.	.	.	.	.	4d\	.	.	.
=23-	=23-	=23-	=23-	=23-	=23-	=23-	=23-	=23-	=23-	=23-	=23-
1C	a-	1C	a-	2r	.	1c	.	4e\	.	.	.
*	*	*	*	*	*	*	*	*	*	*custos:g	*
.	.	.	.	.	.	.	.	4d\	.	.	.
!	!	!	!	!	!	!	!	!	!	!LO:LB:g=original	!
!	!	!	!	!LO:TX:a:t=P:problem=kreska pseudotaktowa	!	!	!	!	!	!LO:TX:a:t=P:problem=kreska pseudotaktowa	!
.	.	.	.	2G/	a-	.	.	4e\	.	2g\	.
!	!	!	!	!	!	!	!	!LO:TX:a:t=P:problem=kreska pseudotaktowa	!	!	!
.	.	.	.	.	.	.	.	4f\	.	.	.
*	*	*	*	*	*	*Xlig	*	*	*	*	*
*	*	*	*	*	*	*	*	*custos:f	*	*	*
!LO:TX:a:t=P:problem=kreska pseudotaktowa	!	!LO:TX:a:t=P:problem=kreska pseudotaktowa	!	!	!	!LO:TX:a:t=P:problem=kreska pseudotaktowa	!	!	!	!	!
1C	-pe-	1C	-pe-	2.c\	-pe-	1G,<	.	2g\	-pe-	1e	-tur
!	!	!	!	!	!	!	!	!LO:LB:g=original	!	!	!
.	.	.	.	.	.	.	.	4f\	-ri-	.	.
!	!	!	!	!LO:TX:a:t=P:problem=kreska pseudotaktowa	!	!	!	!LO:TX:a:t=P:problem=kreska pseudotaktowa	!	!	!
.	.	.	.	4B\	-ri-	.	.	4e\	.	.	.
=24-	=24-	=24-	=24-	=24-	=24-	=24-	=24-	=24-	=24-	=24-	=24-
*	*	*	*	*	*	*lig	*	*	*	*	*
!	!	!	!	!LO:TX:a:t=P:problem=kreska pseudotaktowa	!	!	!	!	!	!	!
2D/	-ri-	2D/	-ri-	1A	-a-	1F	ter-	2d\	-a-	1f	ter-
!	!	!	!	!	!	!	!	!LO:TX:a:t=P:problem=kreska pseudotaktowa	!	!	!
1F	-a-	1F	-a-	.	.	.	.	2c/	-tur	.	.
*	*	*	*	*	*	*	*	*	*Xij	*	*
!	!	!	!	!LO:TX:a:t=P:problem=kreska pseudotaktowa	!	!	!	!	!	!LO:TX:a:t=P:problem=kreska pseudotaktowa	!
.	.	.	.	1G	-tur	1G	.	2r	.	1d	-ra
*	*	*	*	*	*	*Xlig	*	*	*	*	*
!LO:TX:a:t=P:problem=kreska pseudotaktowa	!	!LO:TX:a:t=P:problem=kreska pseudotaktowa	!	!	!	!	!	!	!	!	!
2E\	.	2E\	.	.	.	.	.	2c/	a-	.	.
!	!	!LO:LB:g=original	!	!	!	!	!	!	!	!	!
=25-	=25-	=25-	=25-	=25-	=25-	=25-	=25-	=25-	=25-	=25-	=25-
*	*	*	*	*	*	*lig	*	*	*	*	*
2F,<\	-tur	2F,<\	-tur	2rF	.	1F	.	2A/	-pe-	2re	.
!	!	!	!	!LO:TX:a:t=P:problem=kreska pseudotaktowa	!	!	!	!	!	!LO:TX:a:t=P:problem=kreska pseudotaktowa	!
*	*	*	*	*	*ij	*	*	*	*	*	*
4D\	ter-	4D\	ter-	2A/	a-	.	.	1d	-ri-	2f\	et
!	!	!LO:TX:a:t=P:problem=kreska pseudotaktowa	!	!	!	!	!	!	!	!	!
4E\	.	4E\	.	.	.	.	.	.	.	.	.
4F\	.	4F\	.	2A/	-pe-	1D	.	.	.	2f\	ger-
*	*	*	*	*	*	*Xlig	*	*	*	*	*
4G\	.	4G\	.	.	.	.	.	.	.	.	.
!LO:TX:a:t=P:problem=nuta niewidoczna	!	!	!	!LO:TX:a:t=P:problem=kreska pseudotaktowa	!	!	!	!LO:TX:a:t=P:problem=kreska pseudotaktowa	!	!LO:TX:a:t=P:problem=kreska pseudotaktowa	!
[2A\yy	.	2.A\	.	2A/	-ri-	.	.	2d\	-a-	2f\	-mi-
!LO:LB:g=original	!	!	!	!	!	!	!	!	!	!	!
=26-	=26-	=26-	=26-	=26-	=26-	=26-	=26-	=26-	=26-	=26-	=26-
!LO:N:xstem:cue	!	!	!	!	!	!LO:TX:a:t=P:problem=kreska pseudotaktowa	!	!	!	!LO:TX:a:t=P:problem=kreska pseudotaktowa	!
4A\]	.	.	.	1A	-a-	1D,<	-ra	1d	-tur	0.f	-net
4G\	.	4G\	.	.	.	.	.	.	.	.	.
4F\	.	4F\	.	.	.	.	.	.	.	.	.
!LO:TX:a:t=P:problem=kreska pseudotaktowa	!	!LO:TX:a:t=P:problem=kreska pseudotaktowa	!	!	!	!	!	!	!	!	!
4E\	.	4E\	.	.	.	.	.	.	.	.	.
!LO:TX:a:t=P:problem=kreska pseudotaktowa	!	!LO:TX:a:t=P:problem=kreska pseudotaktowa	!	!LO:TX:a:t=P:problem=kreska pseudotaktowa	!	!	!	!LO:TX:a:t=P:problem=kreska pseudotaktowa	!	!	!
1D	-ra	1D	-ra	1A	-tur	1F	et	1d	ter-	.	.
*	*	*	*	*	*Xij	*	*	*	*	*	*
!	!	!	!	!LO:LB:g=original	!	!	!	!	!	!	!
=27-	=27-	=27-	=27-	=27-	=27-	=27-	=27-	=27-	=27-	=27-	=27-
*	*	*	*	*	*	*custos:g	*	*	*	*	*
!	!	!	!	!	!	!	!	!LO:TX:a:t=P:problem=kreska pseudotaktowa	!	!	!
2r	.	2r	.	2r	.	1F	ger-	0c	-ra	.	.
!	!	!	!	!LO:TX:a:t=P:problem=kreska pseudotaktowa	!	!	!	!	!	!	!
1F	et	1F	et	2A/	ter-	.	.	.	.	.	.
!	!	!	!	!	!	!LO:LB:g=original	!	!	!	!	!
.	.	.	.	2.c\	.	1G	-mi-	.	.	2rA	.
!LO:TX:a:t=P:problem=kreska pseudotaktowa	!	!LO:TX:a:t=P:problem=kreska pseudotaktowa	!	!	!	!	!	!	!	!LO:TX:a:t=P:problem=kreska pseudotaktowa	!
2E\	.	2E\	.	.	.	.	.	.	.	2c/	et
!	!	!	!	!LO:TX:a:t=P:problem=kreska pseudotaktowa	!	!	!	!	!	!	!
.	.	.	.	4B\	.	.	.	.	.	.	.
=28-	=28-	=28-	=28-	=28-	=28-	=28-	=28-	=28-	=28-	=28-	=28-
*	*	*	*	*	*	*lig	*	*	*	*	*
2F\	ger-	2F\	ger-	4A/	.	1F	.	1r	.	2d\	ger-
.	.	.	.	4G/	.	.	.	.	.	.	.
2D\	-mi-	2D/	-mi-	4A/	.	.	.	.	.	1f	-mi-
!	!	!	!	!LO:TX:a:t=P:problem=kreska pseudotaktowa	!	!	!	!	!	!	!
.	.	.	.	4B\	.	.	.	.	.	.	.
!LO:TX:a:t=P:problem=kreska pseudotaktowa	!	!LO:TX:a:t=P:problem=kreska pseudotaktowa	!	!LO:TX:a:t=P:problem=kreska pseudotaktowa	!	!	!	!	!	!	!
1C	-net	1C	-net	1c	-ra	1G	.	2r	.	.	.
*	*	*	*	*	*	*Xlig	*	*	*	*	*
!	!	!	!	!	!	!	!	!	!	!LO:TX:a:t=P:problem=kreska pseudotaktowa	!
.	.	.	.	.	.	.	.	1c	et	2e\	.
=29-	=29-	=29-	=29-	=29-	=29-	=29-	=29-	=29-	=29-	=29-	=29-
*	*	*lig	*	*	*	*lig	*	*	*	*	*
1F	Sal-	1FF	Sal-	2r	.	1F	-net	.	.	2f\	-net
!	!	!	!	!LO:TX:a:t=P:problem=kreska pseudotaktowa	!	!	!	!LO:TX:a:t=P:problem=kreska pseudotaktowa	!	!LO:TX:a:t=P:problem=kreska pseudotaktowa	!
.	.	.	.	2A/	et	.	.	2c/	ger-	2c/	.
!	!	!	!	!	!	!LO:TX:a:t=P:problem=kreska pseudotaktowa	!	!	!	!	!
*	*	*col	*	*	*	*	*	*	*	*	*
2.B-X\	-va-	2.BB-X/	.	1F	ger-	1D,<	.	2d\	-mi-	2.d\	Sal-
*	*	*Xlig	*	*	*	*Xlig	*	*	*	*	*
!	!	!	!	!	!	!	!	!LO:TX:a:t=P:problem=kreska pseudotaktowa	!	!	!
.	.	.	.	.	.	.	.	2f\	-net	.	.
!LO:TX:a:t=P:problem=kreska pseudotaktowa	!	!LO:TX:a:t=P:problem=kreska pseudotaktowa	!	!	!	!	!	!	!	!LO:TX:a:t=P:problem=kreska pseudotaktowa	!
4A\	.	4AA/	.	.	.	.	.	.	.	4c/	-va-
*	*	*Xcol	*	*	*	*	*	*	*	*	*
=30-	=30-	=30-	=30-	=30-	=30-	=30-	=30-	=30-	=30-	=30-	=30-
*	*	*	*	*lig	*	*lig	*	*	*	*	*
4G\	-to-	4GG/	-ua-	1G	-mi-	1D	Sal-	2d\	Sal-	4B-X/	-to-
*	*	*	*	*	*	*	*	*	*	*custos:B-	*
4F\	.	4FF/	.	.	.	.	.	.	.	4A/	.
!	!	!	!	!	!	!	!	!	!	!LO:LB:g=original	!
!LO:TX:a:t=P:problem=kreska pseudotaktowa	!	!LO:TX:a:t=P:problem=kreska pseudotaktowa	!	!	!	!	!	!LO:TX:a:t=P:problem=kreska pseudotaktowa	!	!LO:TX:a:t=P:problem=kreska pseudotaktowa	!
2G\	.	2GG/	-to-	.	.	.	.	2B-X/	-va-	2B-X/	.
*	*	*	*	*	*	*	*	*custos:c	*	*	*
!	!	!	!	!	!	!	!	!LO:TX:a:t=P:problem=kreska pseudotaktowa	!	!	!
!LO:TX:a:t=P:problem=kreska pseudotaktowa	!	!	!	!	!	!	!	!	!	!	!
1F	-rem	1FF	-rem	1A	.	1F	.	1c	-to-	2A/	-rem
*	*	*	*	*Xlig	*	*Xlig	*	*	*	*	*ij
.	.	.	.	.	.	.	.	.	.	1f	Sal-
!	!	!LO:LB:g=original	!	!	!	!	!	!LO:LB:g=original	!	!	!
=31-	=31-	=31-	=31-	=31-	=31-	=31-	=31-	=31-	=31-	=31-	=31-
*	*	*	*	*	*	*lig	*	*	*	*	*
!LO:TX:a:t=P:problem=kreska pseudotaktowa	!	!LO:TX:a:t=P:problem=kreska pseudotaktowa	!	!LO:TX:a:t=P:problem=kreska pseudotaktowa	!	!	!	!LO:TX:a:t=P:problem=kreska pseudotaktowa	!	!	!
1r	.	1r	.	1G	-net	1C	-ua-	1c	-rem	.	.
!	!	!	!	!	!	!	!	!	!	!LO:TX:a:t=P:problem=kreska pseudotaktowa	!
.	.	.	.	.	.	.	.	.	.	2e\	-va-
*	*	*lig	*	*	*	*	*	*	*	*	*
1F	Sal-	1FF	Sal-	2.A/	Sal-	1F	.	2r	.	2f\	-to-
!	!	!	!	!	!	!	!	!	!	!LO:TX:a:t=P:problem=kreska pseudotaktowa	!
*	*	*	*	*	*	*Xlig	*	*	*ij	*	*
.	.	.	.	.	.	.	.	1f	Sal-	2c/	-rem
!	!	!	!	!LO:TX:a:t=P:problem=kreska pseudotaktowa	!	!	!	!	!	!	!
.	.	.	.	4G/	.	.	.	.	.	.	.
=32-	=32-	=32-	=32-	=32-	=32-	=32-	=32-	=32-	=32-	=32-	=32-
!	!	!LO:TX:a:t=P:problem=kreska pseudotaktowa	!	!	!	!	!	!	!	!	!
1B-X	.	1BB-X	.	2F/	.	1D	.	.	.	1.d	Sal-
*	*	*Xlig	*	*	*	*	*	*	*	*	*
!	!	!	!	!LO:TX:a:t=P:problem=kreska pseudotaktowa	!	!	!	!LO:TX:a:t=P:problem=kreska pseudotaktowa	!	!	!
.	.	.	.	2F/	-va-	.	.	2f\	-va-	.	.
*	*	*	*	*	*	*lig	*	*	*	*	*
2G\	-va-	2GG/	-ua-	2B-X\	-to-	1D	-to-	2f\	-to-	.	.
!LO:TX:t=P:problem=słabo widoczna nuta	!	!LO:TX:a:t=P:problem=kreska pseudotaktowa	!	!LO:TX:a:t=P:problem=kreska pseudotaktowa	!	!	!	!	!	!LO:TX:a:t=P:problem=kreska pseudotaktowa	!
2B-	.	2BB-X/	.	2G/	.	.	.	1d	.	2d\	-va-
!LO:LB:g=original	!	!	!	!	!	!	!	!	!	!	!
=33-	=33-	=33-	=33-	=33-	=33-	=33-	=33-	=33-	=33-	=33-	=33-
*	*	*	*	*custos:A	*	*	*	*	*	*	*
!	!	!	!	!LO:N::vis=0	!	!	!	!	!	!	!
2A\	-to-	1AA	-to-	1A	-rem	1E	.	.	.	2f\	-to-
*	*	*	*	*	*	*Xlig	*	*	*	*	*
!	!	!	!	!	!	!	!	!LO:TX:a:t=P:problem=kreska pseudotaktowa	!	!	!
2AA/	.	.	.	.	.	.	.	2c#X/	.	2e\	-rem
*	*	*	*	*	*	*lig	*	*	*	*	*Xij
!LO:TX:a:t=P:problem=kreska pseudotaktowa	!	!LO:TX:a:t=P:problem=kreska pseudotaktowa	!	!LO:LB:g=original	!	!	!	!	!	!LO:TX:a:t=P:problem=kreska pseudotaktowa	!
1D	-rem	1D	-rem	2A/	Sal-	1F	.	2d\	-rem	1d	Sal-
!	!	!	!	!LO:TX:a:t=P:problem=kreska pseudotaktowa	!	!	!	!	!	!	!
.	.	.	.	2F/	-va-	.	.	2A/	Sal-	.	.
=34-	=34-	=34-	=34-	=34-	=34-	=34-	=34-	=34-	=34-	=34-	=34-
*	*	*	*ij	*	*	*	*	*	*	*	*
2.G\	Sal-	2.GG/	Sal-	4G/	.	1D	.	2.B-X/	-va-	2d\	-va-
*	*	*	*	*	*	*Xlig	*	*	*	*	*
.	.	.	.	4A/	.	.	.	.	.	.	.
.	.	.	.	4B-X\	.	.	.	.	.	2d\	-to-
!	!	!LO:TX:a:t=P:problem=kreska pseudotaktowa	!	!LO:TX:a:t=P:problem=kreska pseudotaktowa	!	!	!	!LO:TX:a:t=P:problem=kreska pseudotaktowa	!	!	!
4A\	.	4AA/	.	4c\	.	.	.	4A/	.	.	.
2B-X\	-va-	2BB-X/	-ua-	2.d\	.	[1Dl;	-rem	2G/	-to-	[1dl;	-rem
!LO:TX:a:t=P:problem=kreska pseudotaktowa	!	!LO:TX:a:t=P:problem=kreska pseudotaktowa	!	!	!	!	!	!	!	!	!
2A\	-to-	2AA/	-to-	.	.	.	.	2F/	-rem	.	.
*	*	*	*	*	*	*	*	*	*Xij	*	*
!	!	!	!	!LO:TX:a:t=P:problem=kreska pseudotaktowa	!	!	!	!	!	!	!
.	.	.	.	4c\	.	.	.	.	.	.	.
=35-	=35-	=35-	=35-	=35-	=35-	=35-	=35-	=35-	=35-	=35-	=35-
2G\	.	2GG/	.	2B-X\	.	0D_	.	2G/	Sal-	0d_	.
!LO:TX:a:t=P:problem=kreska pseudotaktowa	!	!LO:TX:a:t=P:problem=kreska pseudotaktowa	!	!LO:TX:a:t=P:problem=kreska pseudotaktowa	!	!	!	!	!	!	!
2F#X\	.	2FF#X/	.	2A/	.	.	.	2A/	-va-	.	.
1G	.	1GG	.	1G	-to-	.	.	1B-X	-to-	.	.
=36-	=36-	=36-	=36-	=36-	=36-	=36-	=36-	=36-	=36-	=36-	=36-
[0Dl;	-rem.	[0Dl;	-rem	[0F#Xl;	-rem	0D_	.	[0Al;	-rem	0d_	.
*	*	*	*Xij	*	*	*	*	*	*	*	*
=37-	=37-	=37-	=37-	=37-	=37-	=37-	=37-	=37-	=37-	=37-	=37-
*	*	*	*	*custos:A	*	*custos:f	*	*	*	*	*
0D]	.	0D]	.	0F#]	.	0D]	.	0A]	.	0d]	.
!	!	!LO:LB:g=original	!	!	!	!LO:LB:g=original	!	!LO:LB:g=original	!	!LO:LB:g=original	!
=38||-	=38||-	=38||-	=38||-	=38||-	=38||-	=38||-	=38||-	=38||-	=38||-	=38||-	=38||-
*M2/1	*	*M2/1	*	*M2/1	*	*M2/1	*	*M2/1	*	*M2/1	*
*met(c|)	*	*met(c|)	*	*met(c|)	*	*met(c|)	*	*met(c|)	*	*met(c|)	*
!	!	!	!	!LO:TX:a:t=P:problem=kreska pseudotaktowa	!	!	!	!	!	!	!
1Fny	Be-	1F	Be-	1A	Be-	1F	Be-	1.cny	Be-	2r	.
.	.	.	.	.	.	.	.	.	.	1f	Be-
*	*	*	*	*	*	*lig	*	*	*	*	*
!LO:TX:a:t=P:problem=kreska pseudotaktowa	!	!LO:TX:a:t=P:problem=kreska pseudotaktowa	!	!LO:TX:a:t=P:problem=kreska pseudotaktowa	!	!	!	!	!	!	!
1C	-ne-	1C	.	1G	-ne-	1G	-ne-	.	.	.	.
!	!	!	!	!	!	!	!	!LO:TX:a:t=P:problem=kreska pseudotaktowa	!	!LO:TX:a:t=P:problem=kreska pseudotaktowa	!
.	.	.	.	.	.	.	.	2c/	-ne-	2e\	-ne-
=39-	=39-	=39-	=39-	=39-	=39-	=39-	=39-	=39-	=39-	=39-	=39-
2FF/	-di-	2FFny/	-ne-	1.Fny	-di-	1A	.	2c/	-di-	2.f\	-di-
*	*	*	*	*	*	*Xlig	*	*	*	*	*
!	!	!	!	!	!	!	!	!LO:TX:a:t=P:problem=kreska pseudotaktowa	!	!	!
2.F\	-xi-	2.F\	-di-	.	.	.	.	2c/	-xi-	.	.
!	!	!	!	!	!	!	!	!	!	!LO:TX:a:t=P:problem=kreska pseudotaktowa	!
.	.	.	.	.	.	.	.	.	.	4e\	.
.	.	.	.	.	.	1A	-di-	1A	.	4d\	.
4E\	.	4E\	-xi-	.	.	.	.	.	.	4c\	.
!	!	!	!	!LO:TX:a:t=P:problem=kreska pseudotaktowa	!	!	!	!	!	!	!
4D\	.	4D\	.	2F/	-ci-	.	.	.	.	4d\	.
!LO:TX:a:t=P:problem=kreska pseudotaktowa	!	!LO:TX:a:t=P:problem=kreska pseudotaktowa	!	!	!	!	!	!	!	!LO:TX:a:t=P:problem=kreska pseudotaktowa	!
4C\	.	4C\	.	.	.	.	.	.	.	4e\	.
=40-	=40-	=40-	=40-	=40-	=40-	=40-	=40-	=40-	=40-	=40-	=40-
!	!	!	!	!LO:TX:a:t=P:problem=kreska pseudotaktowa	!	!	!	!LO:TX:a:t=P:problem=kreska pseudotaktowa	!	!	!
1D	.	1D	.	1F	-sti	1A	-xi-	1d	-sti	2f\	.
.	.	.	.	.	.	.	.	.	.	2f\	-xi-
!	!	!	!	!	!	!LO:TX:a:t=P:problem=kreska pseudotaktowa	!	!	!	!LO:TX:a:t=P:problem=kreska pseudotaktowa	!
2AA/	sti	2AA,</	sti	0r	.	1A	-sti	1.c	Do-	1e	-sti
!LO:LB:g=original	!	!	!	!	!	!	!	!	!	!	!
2.A\	Do-	2.A\	Do-	.	.	.	.	.	.	.	.
=41-	=41-	=41-	=41-	=41-	=41-	=41-	=41-	=41-	=41-	=41-	=41-
.	.	.	.	.	.	1A	Do-	.	.	2.a\	Do-
4G\	.	4G\	.	.	.	.	.	.	.	.	.
!	!	!	!	!	!	!	!	!LO:TX:a:t=P:problem=kreska pseudotaktowa	!	!	!
4F\	.	4F\	.	.	.	.	.	2c/	-mi-	.	.
!LO:TX:a:t=P:problem=kreska pseudotaktowa	!	!LO:TX:a:t=P:problem=kreska pseudotaktowa	!	!	!	!	!	!	!	!LO:TX:a:t=P:problem=kreska pseudotaktowa	!
4E\	.	4E\	.	.	.	.	.	.	.	4g\	.
2D/	.	2D/	.	2r	.	2A/	-mi-	2d\	-ne	2f\	.
!	!	!LO:TX:a:t=P:problem=kreska pseudotaktowa	!	!LO:TX:a:t=P:problem=kreska pseudotaktowa	!	!LO:TX:a:t=P:problem=kreska pseudotaktowa	!	!	!	!LO:TX:a:t=P:problem=kreska pseudotaktowa	!
2C#X/	-mi-	2C#X/	-mi-	2A/	ter-	2A/	-ne	2e\	.	2e\	.
=42-	=42-	=42-	=42-	=42-	=42-	=42-	=42-	=42-	=42-	=42-	=42-
*	*	*	*	*	*	*lig	*	*	*	*	*
!LO:TX:a:t=P:problem=kreska pseudotaktowa	!	!LO:TX:a:t=P:problem=kreska pseudotaktowa	!	!	!	!	!	!	!	!	!
1D,<	-ne	1D	-ne	2d\	.	1A	ter-	1f	Do-	1d	-mi-
.	.	.	.	1A	-ram	.	.	.	.	.	.
!	!	!	!	!	!	!	!	!LO:TX:a:t=P:problem=kreska pseudotaktowa	!	!LO:TX:a:t=P:problem=kreska pseudotaktowa	!
2AA/	ter-	2AA/	ter-	.	.	1c	.	1e	.	1c	-ne
*	*	*	*	*	*	*Xlig	*	*	*	*	*
!	!	!LO:TX:a:t=P:problem=kreska pseudotaktowa	!	!LO:TX:a:t=P:problem=kreska pseudotaktowa	!	!	!	!	!	!	!
2Cny/	.	2Cny/	.	2G/	.	.	.	.	.	.	.
=43-	=43-	=43-	=43-	=43-	=43-	=43-	=43-	=43-	=43-	=43-	=43-
!	!	!	!	!	!	!LO:TX:a:t=P:problem=kreska pseudotaktowa	!	!	!	!	!
2D,</	-ram	2D/	.	2.F/	tu-	1A	-ram	2d\	-mi-	2r	.
*	*ij	*	*	*	*	*	*	*	*	*	*
!	!	!	!	!	!	!	!	!LO:TX:a:t=P:problem=kreska pseudotaktowa	!	!LO:TX:a:t=P:problem=kreska pseudotaktowa	!
1F	ter-	1F	.	.	.	.	.	2c/	-ne	2c/	ter-
.	.	.	.	4G/	.	.	.	.	.	.	.
*	*	*	*	*	*	*lig	*	*	*	*	*
*	*	*	*	*	*	*	*	*	*	*custos:f	*
!	!	!	!	!LO:TX:a:t=P:problem=kreska pseudotaktowa	!	!	!	!	!	!	!
.	.	.	.	1A	-am	1A	tu-	4A/	ter-	2d\	.
.	.	.	.	.	.	.	.	4G/	.	.	.
!LO:TX:a:t=P:problem=kreska pseudotaktowa	!	!LO:TX:a:t=P:problem=kreska pseudotaktowa	!	!	!	!	!	!	!	!LO:LB:g=original	!
2F\	-ram	2F\	-ram	.	.	.	.	4A/	.	1f	.
*	*Xij	*	*	*	*	*	*	*	*	*	*
!	!	!	!	!	!	!	!	!LO:TX:a:t=P:problem=kreska pseudotaktowa	!	!	!
.	.	.	.	.	.	.	.	4Bny/	.	.	.
!	!	!LO:LB:g=original	!	!	!	!	!	!	!	!	!
=44-	=44-	=44-	=44-	=44-	=44-	=44-	=44-	=44-	=44-	=44-	=44-
*	*	*	*	*	*	*	*	*custos:c	*	*	*
!	!	!	!	!	!	!	!	!LO:TX:a:t=P:problem=kreska pseudotaktowa	!	!	!
!LO:TX:a:t=P:problem=kreska pseudotaktowa	!	!	!	!LO:TX:a:t=P:problem=kreska pseudotaktowa	!	!	!	!	!	!	!
0C	tu-	1C	.	0r	.	1G	.	1c	-ram	.	.
*	*	*	*	*	*	*Xlig	*	*	*	*	*
.	.	.	.	.	.	.	.	.	.	4e\	.
!	!	!	!	!	!	!	!	!	!	!LO:TX:a:t=P:problem=kreska pseudotaktowa	!
.	.	.	.	.	.	.	.	.	.	4d\	.
!	!	!LO:TX:a:t=P:problem=kreska pseudotaktowa	!	!	!	!	!	!LO:LB:g=original	!	!	!
*	*	*	*	*	*	*lig	*	*	*	*	*
.	.	1C	tu-	.	.	1G	-am	1c	tu-	1e	ram
=45-	=45-	=45-	=45-	=45-	=45-	=45-	=45-	=45-	=45-	=45-	=45-
*	*	*	*	*	*	*custos:A	*	*	*	*	*
!	!	!	!	!	!	!LO:TX:a:t=P:problem=kreska pseudotaktowa	!	!LO:TX:a:t=P:problem=kreska pseudotaktowa	!	!	!
2FF,</	-am	2FF,</	-am	1F	a-	1A	.	0c	-am	1f	tu-
*	*	*	*	*	*	*Xlig	*	*	*	*	*
1F	a-	1F	a-	.	.	.	.	.	.	.	.
!	!	!	!	!	!	!LO:LB:g=original	!	!	!	!	!
*	*	*	*	*	*	*lig	*	*	*	*	*
!	!	!	!	!LO:TX:a:t=P:problem=kreska pseudotaktowa	!	!	!	!	!	!LO:TX:a:t=P:problem=kreska pseudotaktowa	!
.	.	.	.	1G	-uer-	1G	a-	.	.	1c	-am
!LO:TX:a:t=P:problem=kreska pseudotaktowa	!	!LO:TX:a:t=P:problem=kreska pseudotaktowa	!	!	!	!	!	!	!	!	!
2E\	.	2E\	.	.	.	.	.	.	.	.	.
=46-	=46-	=46-	=46-	=46-	=46-	=46-	=46-	=46-	=46-	=46-	=46-
2F\	-ver-	2F\	-uer-	2A/	-ti-	1F	.	2rA	.	2r	.
*	*	*	*	*	*	*Xlig	*	*	*	*	*
!	!	!LO:TX:a:t=P:problem=kreska pseudotaktowa	!	!	!	!	!	!	!	!	!
2D\	.	2D/	.	2Bny\	.	.	.	2d\	a-	1f	a-
*	*	*	*	*	*	*lig	*	*	*	*	*
!LO:TX:a:t=P:problem=kreska pseudotaktowa	!	!LO:TX:a:t=P:problem=kreska pseudotaktowa	!	!LO:TX:a:t=P:problem=kreska pseudotaktowa	!	!	!	!LO:TX:a:t=P:problem=kreska pseudotaktowa	!	!	!
1C	-ti-	1C	-ti-	1c	-sti	1G	-uer-	1g	.	.	.
!	!	!	!	!	!	!	!	!	!	!LO:TX:a:t=P:problem=kreska pseudotaktowa	!
.	.	.	.	.	.	.	.	.	.	2e\	-ue-
=47-	=47-	=47-	=47-	=47-	=47-	=47-	=47-	=47-	=47-	=47-	=47-
2FF,</	-sti	2FF,</	-sti	2r	.	1A	.	1.f	-uer-	2f\	-rti-
*	*	*	*	*	*	*Xlig	*	*	*	*	*
!	!	!	!	!	!	!	!	!	!	!LO:TX:a:t=P:problem=kreska pseudotaktowa	!
2.F\	ca-	2.F\	cap-	2.A/	cap-	.	.	.	.	2d\	.
.	.	.	.	.	.	1A	-ti-	.	.	2c/	-sri
*	*	*	*	*custos:f	*	*	*	*	*	*	*
4E\	.	4E\	.	4G/	-ti-	.	.	.	.	.	.
*	*	*	*	*	*	*	*	*	*	*	*ij
!	!	!	!	!LO:LB:g=original	!	!	!	!LO:TX:a:t=P:problem=kreska pseudotaktowa	!	!	!
4D\	.	4D\	.	4F/	-ui-	.	.	2f\	-ti-	1f	a-
!	!	!LO:TX:a:t=P:problem=kreska pseudotaktowa	!	!LO:TX:a:t=P:problem=kreska pseudotaktowa	!	!	!	!	!	!	!
4C\	.	4C\	.	4E/	.	.	.	.	.	.	.
!LO:LB:g=original	!	!	!	!	!	!	!	!	!	!	!
=48-	=48-	=48-	=48-	=48-	=48-	=48-	=48-	=48-	=48-	=48-	=48-
1D	-pti-	1D	-ti-	2F/	-ta-	2A,</	-sti	2d\	-sti	.	.
!	!	!	!	!	!	!LO:TX:a:t=P:problem=kreska pseudotaktowa	!	!	!	!LO:TX:a:t=P:problem=kreska pseudotaktowa	!
*	*	*	*	*	*	*	*	*	*ij	*	*
.	.	.	.	2D/	.	2A/	ca-	1d	a-	2f\	-ue-
!LO:TX:a:t=P:problem=kreska pseudotaktowa	!	!LO:TX:a:t=P:problem=kreska pseudotaktowa	!	!LO:TX:a:t=P:problem=kreska pseudotaktowa	!	!	!	!	!	!	!
1AA	-vi-	1AA	-ui-	1E	-tem	1A	-pti-	.	.	2e\	.
!	!	!	!	!	!	!	!	!LO:TX:a:t=P:problem=kreska pseudotaktowa	!	!	!
!	!	!	!	!	!	!	!	!LO:TX:b:t=P:problem=# below	!	!LO:TX:a:t=P:problem=kreska pseudotaktowa	!
.	.	.	.	.	.	.	.	2c#X/	.	2e\	-rti-
=49-	=49-	=49-	=49-	=49-	=49-	=49-	=49-	=49-	=49-	=49-	=49-
*	*	*	*	*	*	*lig	*	*	*	*	*
1F	-ta-	1F	.	1r	.	1A	ui-	2d\	-uer-	2d\	-sti
*	*	*	*	*	*	*	*	*	*	*	*Xij
!	!	!	!	!	!	!	!	!LO:TX:a:t=P:problem=kreska pseudotaktowa	!	!	!
.	.	.	.	.	.	.	.	2d\	-ti-	1a	cap-
!LO:TX:a:t=P:problem=kreska pseudotaktowa	!	!LO:TX:a:t=P:problem=kreska pseudotaktowa	!	!	!	!	!	!LO:TX:a:t=P:problem=kreska pseudotaktowa	!	!	!
1E	.	1E	-ta-	2r	.	1B	.	1e	-sti	.	.
*	*	*	*	*	*	*Xlig	*	*	*Xij	*	*
!	!	!	!	!LO:TX:a:t=P:problem=kreska pseudotaktowa	!	!	!	!	!	!LO:TX:a:t=P:problem=kreska pseudotaktowa	!
.	.	.	.	2G/	cap-	.	.	.	.	2g\	-ti-
=50-	=50-	=50-	=50-	=50-	=50-	=50-	=50-	=50-	=50-	=50-	=50-
*	*	*	*	*	*	*lig	*	*	*	*	*
*	*	*	*	*	*	*	*	*	*	*custos:e	*
2AA,</	-tem	2AA/	-tem	1A	-ti-	1c	.	0r	.	2f\	-ui-
!	!	!	!	!	!	!	!	!	!	!LO:LB:g=original	!
!	!	!	!	!	!	!	!	!	!	!LO:TX:a:t=P:problem=kreska pseudotaktowa	!
2.A\	ca-	2.A\	cap-	.	.	.	.	.	.	2e\	-ta-
.	.	.	.	1c	-ui-	1A	.	.	.	2e,<\	-tem
*	*	*	*	*	*	*Xlig	*	*	*	*	*
4G\	.	4G\	ti-	.	.	.	.	.	.	.	.
!LO:TX:a:t=P:problem=kreska pseudotaktowa	!	!LO:LB:g=original	!	!	!	!	!	!	!	!LO:TX:a:t=P:problem=kreska pseudotaktowa	!
[<2F\	.	1F	-ui-	.	.	.	.	.	.	2f\	cap-
=51-	=51-	=51-	=51-	=51-	=51-	=51-	=51-	=51-	=51-	=51-	=51-
!	!	!	!	!LO:TX:a:t=P:problem=kreska pseudotaktowa	!	!	!	!	!	!	!
2F\]	.	.	.	1G	-ta-	1G	ta-	2r	.	2c/	-ti-
!	!	!LO:TX:a:t=P:problem=kreska pseudotaktowa	!	!	!	!	!	!LO:TX:a:t=P:problem=kreska pseudotaktowa	!	!	!
2E\	.	2E\	.	.	.	.	.	2cny/	cap-	2c/	-ui-
!	!	!	!	!	!	!LO:TX:a:t=P:problem=kreska pseudotaktowa	!	!	!	!LO:TX:a:t=P:problem=kreska pseudotaktowa	!
2.F\	-pti-	2.F\	.	1.A	-tem	1F	-tem	2f\	ti-	1c	-ta-
.	.	.	.	.	.	.	.	2.f\	-ui-	.	.
4E\	-vi-	4E\	.	.	.	.	.	.	.	.	.
=52-	=52-	=52-	=52-	=52-	=52-	=52-	=52-	=52-	=52-	=52-	=52-
*	*	*	*	*	*	*lig	*	*	*	*	*
!	!	!	!	!	!	!	!	!	!	!LO:TX:a:t=P:problem=kreska pseudotaktowa	!
4D/	.	4D/	.	.	.	1F	Ja-	.	.	1d	-tem
4C/	.	4C/	.	.	.	.	.	4e\	.	.	.
*	*	*	*	*	*ij	*	*	*	*	*	*
!LO:TX:a:t=P:problem=kreska pseudotaktowa	!	!LO:TX:a:t=P:problem=kreska pseudotaktowa	!	!LO:TX:a:t=P:problem=kreska pseudotaktowa	!	!	!	!	!	!	!
2D/	-ta-	2D/	-ta-	2A/	cap-	.	.	1d	-ta-	.	.
!LO:TX:a:t=P:problem=kreska pseudotaktowa	!	!LO:TX:a:t=P:problem=kreska pseudotaktowa	!	!LO:TX:a:t=P:problem=kreska pseudotaktowa	!	!	!	!	!	!	!
1AA	-tem	1AA	-tem	1A	-ti-	1E	.	.	.	2r	.
*	*	*	*	*	*	*Xlig	*	*	*	*	*
!	!	!	!	!	!	!	!	!LO:TX:a:t=P:problem=kreska pseudotaktowa	!	!LO:TX:a:t=P:problem=kreska pseudotaktowa	!
.	.	.	.	.	.	.	.	2c#X/	.	2e\	Ja-
!	!	!	!	!	!	!	!	!LO:LB:g=original	!	!	!
=53-	=53-	=53-	=53-	=53-	=53-	=53-	=53-	=53-	=53-	=53-	=53-
2r	.	2r	.	1A	-ui-	[0Dl;	-cob	2.d\	-tem	2f\	.
!	!	!LO:TX:a:t=P:problem=kreska pseudotaktowa	!	!	!	!	!	!	!	!LO:TX:a:t=P:problem=kreska pseudotaktowa	!
2D\	Ja-	2D/	Ja-	.	.	.	.	.	.	2d\	.
!	!	!	!	!	!	!	!	!LO:TX:a:t=P:problem=kreska pseudotaktowa	!	!	!
.	.	.	.	.	.	.	.	4cny/	.	.	.
2G\	.	2GG/	.	2G/	-ta-	.	.	2B-X/	.	1d	.
!LO:TX:a:t=P:problem=kreska pseudotaktowa	!	!LO:TX:a:t=P:problem=kreska pseudotaktowa	!	!LO:TX:a:t=P:problem=kreska pseudotaktowa	!	!	!	!LO:TX:a:t=P:problem=kreska pseudotaktowa	!	!	!
2F#X\	.	2FF#X/	.	2A/	-tem	.	.	2A/	Ja-	.	.
*	*	*	*	*	*Xij	*	*	*	*	*	*
=54-	=54-	=54-	=54-	=54-	=54-	=54-	=54-	=54-	=54-	=54-	=54-
1G	.	1GG	.	1B-X	Ja-	0Dl_	.	1G	.	[0dl;	-cob.
*	*	*	*	*custos:A	*	*	*	*	*	*	*
0Dl;	-cob	0Dl;	-cob	0A/l;	-cob.	.	.	0Fl;	-cob	.	.
.	.	.	.	.	.	1D/]	.	.	.	1d\]	.
!LO:LB:g=original	!	!LO:PB:g=original	!	!LO:PB:g=original	!	!LO:LB:g=original	!	!	!	!LO:PB:g=original	!
=55||-	=55||-	=55||-	=55||-	=55||-	=55||-	=55||-	=55||-	=55||-	=55||-	=55||-	=55||-
*M2/1	*	*M2/1	*	*M2/1	*	*M2/1	*	*M2/1	*	*M2/1	*
*met(c|)	*	*met(c|)	*	*met(c|)	*	*met(c|)	*	*met(c|)	*	*met(c|)	*
1Fny	Glo-	1F	Glo-	1A	Glo-	1F	Glo-	1c	Glo-	2r	.
.	.	.	.	.	.	.	.	.	.	1f	Glo-
*	*	*	*	*	*	*lig	*	*	*	*	*
!	!	!LO:TX:a:t=P:problem=kreska pseudotaktowa	!	!LO:TX:a:t=P:problem=kreska pseudotaktowa	!	!	!	!	!	!	!
2.C/	.	1C	-ri-	1G	-ri-	1G	-ri-	1.c	-ri-	.	.
!	!	!	!	!	!	!	!	!	!	!LO:TX:a:t=P:problem=kreska pseudotaktowa	!
.	.	.	.	.	.	.	.	.	.	2e\	-ri-
4C/	-ri-	.	.	.	.	.	.	.	.	.	.
=56-	=56-	=56-	=56-	=56-	=56-	=56-	=56-	=56-	=56-	=56-	=56-
2FF/	-a	2FFny/	-a	1.F	-a	1A	.	.	.	2.f\	-a
*	*	*	*	*	*	*Xlig	*	*	*	*	*
!	!	!	!	!	!	!	!	!LO:TX:a:t=P:problem=kreska pseudotaktowa	!	!	!
2.F\	Pa-	2.F\	Pa-	.	.	.	.	2c/	-a	.	.
!	!	!	!	!	!	!	!	!	!	!LO:TX:a:t=P:problem=kreska pseudotaktowa	!
.	.	.	.	.	.	.	.	.	.	4e\	.
.	.	.	.	.	.	2A,</	-a	1A	Pa-	4d\	.
4E\	.	4E\	.	.	.	.	.	.	.	4c\	.
!	!	!	!	!LO:TX:a:t=P:problem=kreska pseudotaktowa	!	!LO:TX:a:t=P:problem=kreska pseudotaktowa	!	!	!	!	!
4D\	.	4D\	.	2F/	Pa-	2A/	Pa-	.	.	4d\	.
!LO:TX:a:t=P:problem=kreska pseudotaktowa	!	!LO:TX:a:t=P:problem=kreska pseudotaktowa	!	!	!	!	!	!	!	!LO:TX:a:t=P:problem=kreska pseudotaktowa	!
4C\	.	4C/	.	.	.	.	.	.	.	4e\	.
=57-	=57-	=57-	=57-	=57-	=57-	=57-	=57-	=57-	=57-	=57-	=57-
!	!	!	!	!LO:TX:a:t=P:problem=kreska pseudotaktowa	!	!	!	!	!	!	!
1D	.	1D	.	1F	-tri	2A,</	-tri	1d	-tri	2f\	.
.	.	.	.	.	.	2A/	et	.	.	2f\	Pa-
!	!	!	!	!	!	!	!	!LO:TX:a:t=P:problem=kreska pseudotaktowa	!	!LO:TX:a:t=P:problem=kreska pseudotaktowa	!
2AA/	-tri	2AA,</	-tri	0r	.	2A/	Fi-	1c	et	1e	-tri
!	!	!LO:TX:a:t=P:problem=kreska pseudotaktowa	!	!	!	!	!	!	!	!	!
2.A\	et	[y2A\	et	.	.	2A/	-li-	.	.	.	.
=58-	=58-	=58-	=58-	=58-	=58-	=58-	=58-	=58-	=58-	=58-	=58-
!	!	!LO:N:xstem:cue	!	!	!	!	!	!	!	!	!
.	.	4A\]	.	.	.	2A,</	-o	2c/	Fi-	2.a\	et
4G\	.	4G\	.	.	.	.	.	.	.	.	.
!	!	!	!	!	!	!LO:TX:a:t=P:problem=kreska pseudotaktowa	!	!	!	!	!
4F\	.	4F\	.	.	.	2A/	et	2c/	-li-	.	.
!LO:TX:a:t=P:problem=kreska pseudotaktowa	!	!LO:TX:a:t=P:problem=kreska pseudotaktowa	!	!	!	!	!	!	!	!LO:TX:a:t=P:problem=kreska pseudotaktowa	!
4E\	.	4E\	.	.	.	.	.	.	.	4g\	.
2D/	Fi-	2D/	Fi-	2r	.	1A	Spi-	2d\	-o	2f\	.
!	!	!LO:TX:a:t=P:problem=kreska pseudotaktowa	!	!LO:TX:a:t=P:problem=kreska pseudotaktowa	!	!	!	!LO:TX:a:t=P:problem=kreska pseudotaktowa	!	!	!
2C#X/	-li-	2C#X/	-li-	2A/	et	.	.	2e\	et	2e\	Fi-
=59-	=59-	=59-	=59-	=59-	=59-	=59-	=59-	=59-	=59-	=59-	=59-
*	*	*	*	*	*	*lig	*	*	*	*	*
*	*	*	*	*	*	*	*	*custos:e	*	*	*
!	!	!	!	!	!	!	!	!LO:TX:a:t=P:problem=kreska pseudotaktowa	!	!	!
!LO:TX:a:t=P:problem=kreska pseudotaktowa	!	!LO:TX:a:t=P:problem=kreska pseudotaktowa	!	!	!	!	!	!	!	!	!
1D	-o	1D	-o	2d\	Fi-	1A	-ri-	1f	Spi-	1d	-li-
.	.	.	.	1A	-li-	.	.	.	.	.	.
!	!	!	!	!	!	!	!	!LO:PB:g=original	!	!LO:TX:a:t=P:problem=kreska pseudotaktowa	!
2AA/	et	2AA/	et	.	.	1c	.	1e	-ri-	1c	-o
*	*	*	*	*	*	*Xlig	*	*	*	*	*
!	!	!LO:TX:a:t=P:problem=kreska pseudotaktowa	!	!LO:TX:a:t=P:problem=kreska pseudotaktowa	!	!	!	!	!	!	!
2Cny/	Spi-	2Cny/	Spi-	2G/	-o	.	.	.	.	.	.
=60-	=60-	=60-	=60-	=60-	=60-	=60-	=60-	=60-	=60-	=60-	=60-
2D\	-ri-	2D/	-ri-	2.F/	Fi-	2A/	-tu-	2d\	-tu-	2r	.
!	!	!LO:LB:g=original	!	!	!	!LO:TX:a:t=P:problem=kreska pseudotaktowa	!	!LO:TX:a:t=P:problem=kreska pseudotaktowa	!	!LO:TX:a:t=P:problem=kreska pseudotaktowa	!
1F	.	1F	-tu-	.	.	2A/	-i	2c/	-i	2c/	et
.	.	.	.	4G/	-li-	.	.	.	.	.	.
*	*	*	*	*	*	*lig	*	*	*	*	*
*	*	*	*	*	*	*	*	*	*	*custos:f	*
!	!	!	!	!LO:TX:a:t=P:problem=kreska pseudotaktowa	!	!	!	!	!	!	!
.	.	.	.	1A	-o	1A	San-	4A/	San-	2d\	Spi-
.	.	.	.	.	.	.	.	4G/	.	.	.
!	!	!LO:TX:a:t=P:problem=kreska pseudotaktowa	!	!	!	!	!	!	!	!LO:LB:g=original	!
2F\	-tu-	2F\	-i	.	.	.	.	4A/	.	1f	-ri-
.	.	.	.	.	.	.	.	4Bny/	.	.	.
=61-	=61-	=61-	=61-	=61-	=61-	=61-	=61-	=61-	=61-	=61-	=61-
!	!	!	!	!LO:TX:a:t=P:problem=kreska pseudotaktowa	!	!	!	!	!	!	!
1C	-i	1C	.	0r	.	1G	.	0c	.	.	.
*	*	*	*	*	*	*Xlig	*	*	*	*	*
.	.	.	.	.	.	.	.	.	.	4e\	.
!	!	!	!	!	!	!LO:LB:g=original	!	!	!	!LO:TX:a:t=P:problem=kreska pseudotaktowa	!
.	.	.	.	.	.	.	.	.	.	4d\	.
*	*	*	*	*	*	*lig	*	*	*	*	*
!LO:LB:g=original	!	!LO:TX:a:t=P:problem=kreska pseudotaktowa	!	!	!	!	!	!	!	!	!
1C	San-	1C	S(an)-	.	.	1G	-cto	.	.	2e\	-tu-
.	.	.	.	.	.	.	.	.	.	2e\	-i
=62-	=62-	=62-	=62-	=62-	=62-	=62-	=62-	=62-	=62-	=62-	=62-
!	!	!	!	!	!	!LO:TX:a:t=P:problem=kreska pseudotaktowa	!	!LO:TX:a:t=P:problem=kreska pseudotaktowa	!	!LO:TX:a:t=P:problem=kreska pseudotaktowa	!
2FF,</	-cto.	2FF,</	-cto	1F	Si-	1A	.	1c	-cto	1f	S(an)-
*	*	*	*	*	*	*Xlig	*	*	*	*	*
1F	Si-	1F	Si-	.	.	.	.	.	.	.	.
*	*	*	*	*	*	*lig	*	*	*	*	*
!	!	!	!	!LO:TX:a:t=P:problem=kreska pseudotaktowa	!	!	!	!	!	!LO:TX:a:t=P:problem=kreska pseudotaktowa	!
.	.	.	.	1G	.	1G	Si-	2r	.	1c	-cto
!LO:TX:a:t=P:problem=kreska pseudotaktowa	!	!LO:TX:a:t=P:problem=kreska pseudotaktowa	!	!	!	!	!	!LO:TX:a:t=P:problem=kreska pseudotaktowa	!	!	!
2E\	-cut	2E\	-cut	.	.	.	.	2c/	Si-	.	.
=63-	=63-	=63-	=63-	=63-	=63-	=63-	=63-	=63-	=63-	=63-	=63-
1F	e-	1F	e-	1A	-cut	1F	.	1.c	-cut	2r	.
*	*	*	*	*	*	*Xlig	*	*	*	*	*
.	.	.	.	.	.	.	.	.	.	1f	Si-
*	*	*	*	*custos:f	*	*	*	*	*	*	*
!LO:TX:a:t=P:problem=kreska pseudotaktowa	!	!LO:TX:a:t=P:problem=kreska pseudotaktowa	!	!LO:TX:a:t=P:problem=kreska pseudotaktowa	!	!	!	!	!	!	!
*	*	*	*	*	*	*lig	*	*	*	*	*
1C	.	1C	.	1G	e-	1G	-cut	.	.	.	.
!	!	!	!	!	!	!	!	!LO:TX:a:t=P:problem=kreska pseudotaktowa	!	!LO:TX:a:t=P:problem=kreska pseudotaktowa	!
.	.	.	.	.	.	.	.	2c/	e-	2e\	-cut
!	!	!	!	!LO:LB:g=original	!	!	!	!	!	!	!
=64-	=64-	=64-	=64-	=64-	=64-	=64-	=64-	=64-	=64-	=64-	=64-
!	!	!	!	!	!	!LO:TX:a:t=P:problem=kreska pseudotaktowa	!	!	!	!	!
2FF,</	-rat	2FF/	-rat	1.F	.	1A	.	2c/	-rat	2.f\	e-
*	*	*	*	*	*	*Xlig	*	*	*	*	*
2.F\	e-	2.F\	e-	.	.	.	.	2c/	in	.	.
!	!	!	!	!	!	!	!	!	!	!LO:TX:a:t=P:problem=kreska pseudotaktowa	!
.	.	.	.	.	.	.	.	.	.	4e\	.
!	!	!	!	!	!	!	!	!LO:TX:a:t=P:problem=kreska pseudotaktowa	!	!	!
.	.	.	.	.	.	2A/	e-	1A	prin-	4d\	.
4E\	.	4E\	.	.	.	.	.	.	.	4c\	.
!	!	!	!	!	!	!LO:TX:a:t=P:problem=kreska pseudotaktowa	!	!	!	!	!
4D\	.	4D\	.	2F/	.	2A/	-rat	.	.	4d\	.
!LO:TX:a:t=P:problem=kreska pseudotaktowa	!	!LO:TX:a:t=P:problem=kreska pseudotaktowa	!	!	!	!	!	!	!	!LO:TX:a:t=P:problem=kreska pseudotaktowa	!
4C\	.	4C/	.	.	.	.	.	.	.	4e\	.
=65-	=65-	=65-	=65-	=65-	=65-	=65-	=65-	=65-	=65-	=65-	=65-
!	!	!LO:TX:a:t=P:problem=kreska pseudotaktowa	!	!LO:TX:a:t=P:problem=kreska pseudotaktowa	!	!	!	!	!	!	!
1D	.	1D	.	1F	-rat	2A/	in	2.d\	-ci-	2f\	.
!	!	!	!	!	!	!LO:TX:a:t=P:problem=kreska pseudotaktowa	!	!	!	!LO:TX:a:t=P:problem=kreska pseudotaktowa	!
.	.	.	.	.	.	2A/	prin-	.	.	2f\	-rat
.	.	.	.	.	.	.	.	4d\	-pi-	.	.
!	!	!	!	!	!	!	!	!LO:TX:a:t=P:problem=kreska pseudotaktowa	!	!LO:TX:a:t=P:problem=kreska pseudotaktowa	!
2AA,</	-rat	2AA,</	-rat	0r	.	2.A/	-ci-	0c	-o	1e	in
2.A\	in	2.A\	in	.	.	.	.	.	.	.	.
!	!	!	!	!	!	!LO:TX:a:t=P:problem=kreska pseudotaktowa	!	!	!	!	!
.	.	.	.	.	.	4A/	-pi-	.	.	.	.
=66-	=66-	=66-	=66-	=66-	=66-	=66-	=66-	=66-	=66-	=66-	=66-
.	.	.	.	.	.	[>2A/	-o	.	.	2.a\	prin-
4G\	.	4G\	.	.	.	.	.	.	.	.	.
4F\	.	4F\	.	.	.	2A,</]	.	.	.	.	.
*	*	*	*	*	*	*	*	*	*	*custos:f	*
!	!	!	!	!	!	!	!	!	!	!LO:TX:a:t=P:problem=kreska pseudotaktowa	!
!LO:TX:a:t=P:problem=kreska pseudotaktowa	!	!LO:TX:a:t=P:problem=kreska pseudotaktowa	!	!	!	!	!	!	!	!	!
4E\	.	4E\	.	.	.	.	.	.	.	4g\	.
!	!	!LO:LB:g=original	!	!	!	!LO:TX:a:t=P:problem=kreska pseudotaktowa	!	!	!	!LO:LB:g=original	!
2D/	prin-	2D/	.	2r	.	1A,<	et	2d\	et	2f\	-ci-
!	!	!LO:TX:a:t=P:problem=kreska pseudotaktowa	!	!	!	!	!	!	!	!	!
2C#X/	.	2C#X/	prin-	2A/	et	.	.	2e\	.	2e\	-pi-
!	!	!	!	!	!	!	!	!LO:LB:g=original	!	!	!
=67-	=67-	=67-	=67-	=67-	=67-	=67-	=67-	=67-	=67-	=67-	=67-
*	*	*	*	*	*	*lig	*	*	*	*	*
!	!	!	!	!	!	!	!	!	!	!LO:TX:a:t=P:problem=kreska pseudotaktowa	!
2.D/	-ci-	2.D/	-ci-	2d\	nunc	1A	nunc	1f	nunc	1d	-o
.	.	.	.	1A	.	.	.	.	.	.	.
!	!	!LO:TX:a:t=P:problem=kreska pseudotaktowa	!	!	!	!	!	!	!	!	!
4D/	-pi-	4D/	-pi-	.	.	.	.	.	.	.	.
*	*	*	*	*	*	*custos:A	*	*	*	*	*
!	!	!	!	!	!	!	!	!LO:TX:a:t=P:problem=kreska pseudotaktowa	!	!LO:TX:a:t=P:problem=kreska pseudotaktowa	!
2AA/	-o	2AA/	-o	.	.	1c	.	1e	.	1c	.
*	*	*	*	*	*	*Xlig	*	*	*	*	*
!LO:TX:a:t=P:problem=kreska pseudotaktowa	!	!LO:TX:a:t=P:problem=kreska pseudotaktowa	!	!LO:TX:a:t=P:problem=kreska pseudotaktowa	!	!	!	!	!	!	!
2Cny/	et	2Cny/	.	2G/	et	.	.	.	.	.	.
!	!	!	!	!	!	!LO:PB:g=original	!	!	!	!	!
=68-	=68-	=68-	=68-	=68-	=68-	=68-	=68-	=68-	=68-	=68-	=68-
2D/	nunc	2D/	et	2.F/	sem-	1A	et	2d\	et	2r	.
!	!	!	!	!	!	!	!	!LO:TX:a:t=P:problem=kreska pseudotaktowa	!	!LO:TX:a:t=P:problem=kreska pseudotaktowa	!
1F	.	1F	.	.	.	.	.	2c/	.	2c/	et
.	.	.	.	4G/	.	.	.	.	.	.	.
*	*	*	*	*	*	*lig	*	*	*	*	*
!	!	!	!	!LO:TX:a:t=P:problem=kreska pseudotaktowa	!	!	!	!	!	!	!
.	.	.	.	1A	-per	1A	sem-	4A/	.	2d\	nunc
.	.	.	.	.	.	.	.	4G/	.	.	.
!	!	!LO:TX:a:t=P:problem=kreska pseudotaktowa	!	!	!	!	!	!	!	!	!
2F\	et	2F\	nunc	.	.	.	.	4A/	.	1f	.
.	.	.	.	.	.	.	.	4B/	.	.	.
!LO:PB:g=original	!	!	!	!	!	!	!	!	!	!	!
=69-	=69-	=69-	=69-	=69-	=69-	=69-	=69-	=69-	=69-	=69-	=69-
0C	sem-	1C	et	0r	.	1G	.	1c	.	.	.
*	*	*	*	*	*	*Xlig	*	*	*	*	*
.	.	.	.	.	.	.	.	.	.	4e\	et
!	!	!	!	!	!	!	!	!	!	!LO:TX:a:t=P:problem=kreska pseudotaktowa	!
.	.	.	.	.	.	.	.	.	.	4d\	.
!	!	!LO:TX:a:t=P:problem=kreska pseudotaktowa	!	!	!	!	!	!LO:TX:a:t=P:problem=kreska pseudotaktowa	!	!	!
*	*	*	*	*	*	*lig	*	*	*	*	*
.	.	1C	sem-	.	.	1G	-per	1c	sem-	2e\	.
.	.	.	.	.	.	.	.	.	.	2e\	sem-
=70-	=70-	=70-	=70-	=70-	=70-	=70-	=70-	=70-	=70-	=70-	=70-
!	!	!	!	!	!	!LO:TX:a:t=P:problem=kreska pseudotaktowa	!	!LO:TX:a:t=P:problem=kreska pseudotaktowa	!	!	!
2FF,</	-per	2FF,</	-per	1F	et	1A	.	0c	-per	1f	.
*	*	*	*	*	*	*Xlig	*	*	*	*	*
1F	et	1F	Et	.	.	.	.	.	.	.	.
*	*	*	*	*	*	*lig	*	*	*	*	*
!	!	!	!	!LO:TX:a:t=P:problem=kreska pseudotaktowa	!	!	!	!	!	!LO:TX:a:t=P:problem=kreska pseudotaktowa	!
.	.	.	.	1G	in	1G	et	.	.	1c	-per
!LO:TX:a:t=P:problem=kreska pseudotaktowa	!	!LO:TX:a:t=P:problem=kreska pseudotaktowa	!	!	!	!	!	!	!	!	!
2E\	in	2E\	in	.	.	.	.	.	.	.	.
=71-	=71-	=71-	=71-	=71-	=71-	=71-	=71-	=71-	=71-	=71-	=71-
(2F\	sae-	2F\	sae-	2A/	sae-	1F	.	2r	.	2r	.
*	*	*	*	*	*	*Xlig	*	*	*	*	*
!	!	!LO:TX:a:t=P:problem=kreska pseudotaktowa	!	!	!	!	!	!	!	!	!
2D/)	.	2D/	.	2Bny\	-cu-	.	.	2d\	et	1f	et
*	*	*	*	*	*	*lig	*	*	*	*	*
!	!	!LO:TX:a:t=P:problem=kreska pseudotaktowa	!	!LO:TX:a:t=P:problem=kreska pseudotaktowa	!	!	!	!LO:TX:a:t=P:problem=kreska pseudotaktowa	!	!	!
2.C/	.	1C	-cu-	1c	-la	1G	in	1g	in	.	.
!	!	!	!	!	!	!	!	!	!	!LO:TX:a:t=P:problem=kreska pseudotaktowa	!
.	.	.	.	.	.	.	.	.	.	2e\	in
!LO:TX:a:t=P:problem=kreska pseudotaktowa	!	!	!	!	!	!	!	!	!	!	!
4C/	-cu-	.	.	.	.	.	.	.	.	.	.
=72-	=72-	=72-	=72-	=72-	=72-	=72-	=72-	=72-	=72-	=72-	=72-
*	*	*custos:f	*	*	*	*	*	*	*	*	*
!	!	!	!	!	!	!LO:TX:a:t=P:problem=kreska pseudotaktowa	!	!	!	!	!
2FF,</	-la	2FF/	-la	2r	.	1A	.	1.f	sae-	2f\	sae-
*	*	*	*	*	*	*Xlig	*	*	*	*	*
!	!	!LO:LB:g=original	!	!LO:LB:g=original	!	!	!	!	!	!LO:TX:a:t=P:problem=kreska pseudotaktowa	!
2.F\	sae-	2.F\	sae-	[2A/	sae-	.	.	.	.	2d\	-cu-
!	!	!	!	!LO:TX:a:t=P:problem=kreska pseudotaktowa	!	!	!	!	!	!	!
!	!	!	!	!LO:N:xstem:cue	!	!	!	!	!	!	!
.	.	.	.	4A/]	.	1A	sae-	.	.	2c,</	-la
4E/	.	4E\	.	4G/	.	.	.	.	.	.	.
!	!	!	!	!	!	!	!	!LO:TX:a:t=P:problem=kreska pseudotaktowa	!	!	!
4D/	cu-	4D\	cu-	4F/	-cu-	.	.	2f\	-cu-	1f	et
!LO:TX:a:t=P:problem=kreska pseudotaktowa	!	!LO:TX:a:t=P:problem=kreska pseudotaktowa	!	!	!	!	!	!	!	!	!
4C/	.	4C/	.	4E/	.	.	.	.	.	.	.
=73-	=73-	=73-	=73-	=73-	=73-	=73-	=73-	=73-	=73-	=73-	=73-
*	*	*	*	*	*	*	*	*	*	*custos:f	*
1D	-lo-	1D	-lo-	2F/	.	2A/	cu-	2d\	-la	.	.
!	!	!	!	!	!	!	!	!	!	!LO:LB:g=original	!
!	!	!	!	!LO:TX:a:t=P:problem=kreska pseudotaktowa	!	!LO:TX:a:t=P:problem=kreska pseudotaktowa	!	!	!	!LO:TX:a:t=P:problem=kreska pseudotaktowa	!
.	.	.	.	2D/	lo-	2A/	-la	1d	sae-	2f\	in
!LO:TX:a:t=P:problem=kreska pseudotaktowa	!	!LO:TX:a:t=P:problem=kreska pseudotaktowa	!	!LO:TX:a:t=P:problem=kreska pseudotaktowa	!	!	!	!	!	!	!
1AA	-rum	1AA	-rum	1E	-rum	1A	sae-	.	.	2e\	sae-
*	*	*	*	*	*	*	*	*custos:d	*	*	*
!	!	!	!	!	!	!	!	!LO:TX:a:t=P:problem=kreska pseudotaktowa	!	!	!
!	!	!	!	!	!	!	!	!	!	!LO:TX:a:t=P:problem=kreska pseudotaktowa	!
.	.	.	.	.	.	.	.	2c#X/	-cu-	2e\	-cu-
!	!	!	!	!	!	!	!	!LO:LB:g=original	!	!	!
=74-	=74-	=74-	=74-	=74-	=74-	=74-	=74-	=74-	=74-	=74-	=74-
*	*	*	*	*	*	*lig	*	*	*	*	*
1F	A-	1F	sae-	1rA	.	1A	.	2d\	-lo-	2d\	-la
.	.	.	.	.	.	.	.	2d\	-rum	1a	Sae-
!	!	!LO:TX:a:t=P:problem=kreska pseudotaktowa	!	!	!	!	!	!LO:TX:a:t=P:problem=kreska pseudotaktowa	!	!	!
1E	.	1E	-cu-	2rF	.	1B	.	1e	.	.	.
*	*	*	*	*	*	*Xlig	*	*	*	*	*
!	!	!	!	!LO:TX:a:t=P:problem=kreska pseudotaktowa	!	!	!	!	!	!LO:TX:a:t=P:problem=kreska pseudotaktowa	!
.	.	.	.	2G/	sae-	.	.	.	.	2g\	cu-
=75-	=75-	=75-	=75-	=75-	=75-	=75-	=75-	=75-	=75-	=75-	=75-
*	*	*	*	*	*	*lig	*	*	*	*	*
2AA,</	-men	2AA/	-lo-	1A	-cu-	1c	-cu-	0r	.	2f\	-lo-
!	!	!	!	!	!	!	!	!	!	!LO:TX:a:t=P:problem=kreska pseudotaktowa	!
2.A\	sae-	2.A\	.	.	.	.	.	.	.	2e\	-rum
*	*	*	*	*	*	*custos:g	*	*	*	*	*
!	!	!	!	!LO:TX:a:t=P:problem=kreska pseudotaktowa	!	!	!	!	!	!	!
.	.	.	.	1c	-lo-	1A	.	.	.	2e\	a-
*	*	*	*	*	*	*Xlig	*	*	*	*	*
4G\	-cu-	4G\	.	.	.	.	.	.	.	.	.
!	!	!	!	!	!	!	!	!	!	!LO:TX:a:t=P:problem=kreska pseudotaktowa	!
1F	-lo-	1F	.	.	.	.	.	.	.	2f\	-men
!	!	!	!	!	!	!LO:LB:g=original	!	!	!	!	!
=76-	=76-	=76-	=76-	=76-	=76-	=76-	=76-	=76-	=76-	=76-	=76-
.	.	.	.	1G	-rum	1G	-lo-	2r	.	2c/	Sae-
!	!	!LO:TX:a:t=P:problem=kreska pseudotaktowa	!	!	!	!	!	!	!	!LO:TX:a:t=P:problem=kreska pseudotaktowa	!
2E\	-rum	2E\	-rum	.	.	.	.	2cny/	A-	2c/	-cu-
!LO:LB:g=original	!	!	!	!	!	!LO:TX:a:t=P:problem=kreska pseudotaktowa	!	!	!	!	!
*	*ij	*	*ij	*	*ij	*	*	*	*	*	*
2.F\	sae-	2.F\	sae-	1.A	sae-	1F	-rum	2f\	.	1c	-lo-
.	.	.	.	.	.	.	.	2.f\	.	.	.
!	!	!LO:TX:a:t=P:problem=kreska pseudotaktowa	!	!	!	!	!	!	!	!	!
4E\	.	4E\	.	.	.	.	.	.	.	.	.
=77-	=77-	=77-	=77-	=77-	=77-	=77-	=77-	=77-	=77-	=77-	=77-
*	*	*	*	*	*	*lig	*	*	*	*	*
!	!	!	!	!	!	!	!	!	!	!LO:TX:a:t=P:problem=kreska pseudotaktowa	!
4D/	-cu-	4D/	-cu-	.	.	1F	A-	.	.	1d	-ru(m)
4C/	.	4C/	.	.	.	.	.	4e\	.	.	.
!LO:TX:a:t=P:problem=kreska pseudotaktowa	!	!LO:TX:a:t=P:problem=kreska pseudotaktowa	!	!LO:TX:a:t=P:problem=kreska pseudotaktowa	!	!	!	!	!	!	!
2D/	-lo-	2D/	-lo-	2A/	-cu-	.	.	1d	.	.	.
!LO:TX:a:t=P:problem=kreska pseudotaktowa	!	!LO:TX:a:t=P:problem=kreska pseudotaktowa	!	!	!	!	!	!	!	!	!
1AA	-rum	1AA	-rum	1A	-lo-	1E	.	.	.	2re	.
*	*Xij	*	*Xij	*	*	*Xlig	*	*	*	*	*
!	!	!	!	!	!	!	!	!LO:TX:a:t=P:problem=kreska pseudotaktowa	!	!	!
!	!	!	!	!	!	!	!	!LO:TX:b:t=P:problem=# below	!	!LO:TX:a:t=P:problem=kreska pseudotaktowa	!
.	.	.	.	.	.	.	.	2c#X/	.	2e\	A-
=78-	=78-	=78-	=78-	=78-	=78-	=78-	=78-	=78-	=78-	=78-	=78-
!	!	!	!	!LO:TX:a:t=P:problem=kreska pseudotaktowa	!	!	!	!	!	!	!
2r	.	2r	.	1A	-rum	[0Dl;	-men	2.d\	.	2f\	.
*	*	*	*	*	*Xij	*	*	*	*	*	*
!LO:TX:a:t=P:problem=kreska pseudotaktowa	!	!LO:TX:a:t=P:problem=kreska pseudotaktowa	!	!	!	!	!	!	!	!LO:TX:a:t=P:problem=kreska pseudotaktowa	!
2D\	A-	2D/	A-	.	.	.	.	.	.	2d\	.
.	.	.	.	.	.	.	.	4cny/	.	.	.
!	!	!LO:LB:g=original	!	!	!	!	!	!	!	!	!
2G\	.	2GG/	.	2G/	A-	.	.	2B-X/	.	1d	.
!LO:TX:a:t=P:problem=kreska pseudotaktowa	!	!LO:TX:a:t=P:problem=kreska pseudotaktowa	!	!	!	!	!	!LO:TX:a:t=P:problem=kreska pseudotaktowa	!	!	!
2F#X\	.	2FF#X/	.	2A/	.	.	.	2A/	.	.	.
=79-	=79-	=79-	=79-	=79-	=79-	=79-	=79-	=79-	=79-	=79-	=79-
1G	.	1GG	.	1B-X	.	0D_	.	1G	.	[0dl;;	-men.
[0Dl;	-men.	[0Dl;;	-men.	[0Al;;	-men.	.	.	[0F#Xl;;	-men	.	.
.	.	.	.	.	.	.	.	.	.	.	.
=80-	=80-	=80-	=80-	=80-	=80-	=80-	=80-	=80-	=80-	=80-	=80-
.	.	.	.	.	.	0D]	.	.	.	0d]	.
!	!	!LO:TX:b:t=Quonia(m) a 5.	!	!	!	!	!	!	!	!	!
1D]	.	1D]	.	1A]	.	.	.	1F#]	.	.	.
==	==	==	==	==	==	==	==	==;	==	==	==
*-	*-	*-	*-	*-	*-	*-	*-	*-	*-	*-	*-
!!!system-decoration: [s1,s2,s3,s4,s5]s6
!!!RDF**kern: > = above
!!!RDF**kern: < = below
!!!RDF**kern: l = terminal long
!!!ENC: Marta Lawrence
!!!END: 2021-02-28
!!!ENC: Marcin Jachim
!!!END: 2021-02-06
